X:1
T: Humpty Dumpty
C:
R:Reel
Q: 232
K:A
M:4/4
L:1/8
|:A2 ce ae ce|dc de fg af|ec af ec Ac|df ec Bd cB|
A2 ce ae ce|dc de fg af|ec af ec Ac|BA Bc A2 A2|
a2 ed ca ed|cA ce ae ce|d2 fd ce cA|fa ec Be fg|
a2 ed ca ed|cA ce ae ce|de fa ec Ac|BA Bc A2 A2:|
